X: 1
T:Valse Gitane
M:3/4
L:1/8
C:Montbel
S:French Creek
K:D
A3^GA2|D2F2A2|d3=cB2|A2F2A2|G3FE2|=c3BA2|G2F2G2|AB=c2B2|!
A3^GA2|D2F2A2|d3=cB2|A2F2A2|G3FE2|=c3BA2|G2F2E2|D6:||!
A2 FA FA|d2=c2B2|A2 FA FA|d2=c2B2|G2EG EG|=c2B2A2|G2F2G2|AB =c2B2|!
A2FA FA|d2=c2B2|A2FA FA|d2=c2B2|G2 EG EG|=c2B2A2|G2F2E2|D6:||
